X:1143
%%etbk:tnset id:177,pos:2,rep:3
%%etbk:site1 http://www.trad.katesplacedoolin.com/tunes/pulltheknifeandstickitin.html
T:Pull The Knife And Stick It In
Z: Piano Box Version by Martin Fleischmann
H: Created 2013-02-19 /  Last Modified 2013-04-02
M:6/8
L:1/8
R:jig
K:Edor
|: "em"!2!E2E !4!GFE | "bm"!1!D!2!B,!5!E !4!D!2!B,!4!D | "em"!2!E2E !4!GFE | "bm"!4!ABG !4!A!2!F!1!D |
"em"!2!E2E !4!GFE | "bm"!1!D!1!B,!2!E !1!DEF | "em"!4!G2E "bm"!3!FE!1!D |1 "em"!1!B,!2!E!1!D !2!E2!1!D:|2 "em"!1!B,!2!E!1!D !2!!1!E3||
|: "em"!4!e!3!d!2!B !2!B!1!A!3!F | "bm"!2!E!1!D!2!B, !1!D2D | "em"!4!e!3!d!2!B !2!B!1!A!2!F | "bm"!1!ABc !4!d!2!e!3!f |
"em"!2!e!1!d!2!B !2!B!1!A!3!F | "bm"!2!E!1!D!2!B, !1!DEF | "em"!4!G2E "bm"!3!FE!1!D |1 "em"!1!B,!2!E!1!D !2!E3:|2 "em"!1!B,!2!E!3!D !2!E2!1!D||






